!!!OTL: Weberlied (Band 1), S. 167
!!!id: P0831
**kern
*clefG2
*k[f#c#]
*D:
{8f#
8g
=1
*M3/4
4a
4f#
8f#
8g
=2
4a
4f#
8f#
8g
=3
4a
4dd
4b
=4
4b
8a
8b
4a}
=5
{4g
4e
4f#
=6
4g
4e
8f#
8g
=7
4a
8b
8a
8g
16f#
16f#
=8
4f#
8e
8f#
4e}
=9
{4b
4e
8e
8g
=10
4f#
8d
8d
4d
=11
4a
8e
8e
8e
8g
=12
4f#
4d
4d}
=13
4r
=14
{8d
8b
=15
4b
4b
8b
8b
=16
4a
8b
8cc#
4dd}
=17
4r
=18
{8f#
8a
=19
4a
8e
8f#
8e
8c#
=20
*M2/4
4d}
4r
==
*-
!!!minrhy: 16
!!!meters: 2/4 3/4 ]  ZZ[5
!!!cut: Weberlied (Band 1), S. 167
!!!reg: Lothringen
!!!trd: PINCK, Louis: Verklingende Weisen, Bd 1, Metz 1928
!!!rhy1: X_X_  X__X__X_X_  X__X__X_X_  X__X__X__  X__X_X_X__
!!!rhy2: X__X__X__  X__X__X_X_  X__X_X_X_XX  X__X_X_X__
!!!key: P0831  16  D 2/4 3/4 ]  ZZ[5
!!!mod: HEPTATONIK IONISCH]  AMBITUS[9b
!!!kad: 521+11
!!!akz: 5556_4453_6353_65_51_
!!!fot: 'a__b__c__d__e__
!!!for: 'a__b__c__cw_d__
!!!fok: '^a_Sd_Sd_/__^d_
!! PHRAS[GEMISCHTTAKTIG]
!!!fkt: Arbeits-, Berufslied
!! LOTH VKL
!! PR[21] 2K[11] 2G[29] 3K[0] 3G[0] 4A[4] 4Ü[0] 5A[1] 6K[0] 6G[0]
!! 7K[0] 7G[0] 8A[0] MEHR[0] SI[45] ABS[76] SR[39] SP[5]
!! ST[30] 2k[8] 2g[17] 3k[0] 3g[3] 4d[4] 4ü[0] 5d[3] 6k[0] 6g[0]
!! 7k[0] 7g[0] 8d[0] mehr[0] si[34] dm[+11] sr[25] sp[9]
!! 1F[13] 2F[76] 3F[6] 4F[0] LF[0] 2P[1] 3P[4] 4P[0] TRI[0] DF[5] AB[84]
!! TF[0] U3K[0] U3[0] U4[0] U4Ü[0] U5[13] U6K[0] U6[10] U7K[0] U7[13]
!! N1[23] N2K[0] N2[19] N3K[0] N3[8] N4[4] N4Ü[0] N5[9] N6K[0] N6[0]
!!!n7k: 0] N7[0] O1[0] O2K[0] O2[0] O3K[0] O3[0] HÖ[0
